packages/core/src/svgs/tokens/branded/PWR.svg

<svg width="24" height="24" viewBox="0 0 24 24" fill="none" xmlns="http://www.w3.org/2000/svg">
<path d="M11.9973 21.9981C13.5463 21.9979 15.0742 21.6382 16.4604 20.947C17.8467 20.2559 19.0535 19.2521 19.9858 18.015C20.9181 16.7779 21.5502 15.3412 21.8324 13.8181C22.1148 12.2951 22.0394 10.7272 21.6126 9.23813C21.6626 9.52579 21.6876 9.81958 21.6876 10.1196C21.6876 14.1208 17.7301 15.1211 15.7484 15.1211H8.24627L7.6211 18.2469H4.18262C6.02064 20.5351 8.84019 21.9981 11.9973 21.9981Z" fill="url(#paint0_linear_364_13644)"/>
<path d="M3.93324 17.9156C3.10101 16.7794 2.51808 15.4803 2.2226 14.1032C1.92713 12.7263 1.92579 11.3023 2.21866 9.92478C2.51152 8.54712 3.092 7.2469 3.92208 6.10914C4.75217 4.97139 5.81317 4.02175 7.03563 3.32238C8.2581 2.623 9.61453 2.18967 11.0159 2.05072C12.4175 1.91178 13.8325 2.07036 15.1685 2.51608C16.5045 2.96181 17.7313 3.68463 18.7686 4.63725C19.806 5.58987 20.6305 6.7508 21.1881 8.04407C20.613 7.07505 19.4564 6.36861 17.312 6.36861H8.24697L5.12108 9.49445H15.7491V8.24413L19.5001 10.7449L15.7491 13.2456V11.9952H5.12108L3.93324 17.9156Z" fill="url(#paint1_linear_364_13644)"/>
<defs>
<linearGradient id="paint0_linear_364_13644" x1="5.15734" y1="18.0791" x2="22.414" y2="13.2421" gradientUnits="userSpaceOnUse">
<stop stop-color="#4D4D4D"/>
<stop offset="1" stop-color="#1A1A1A"/>
</linearGradient>
<linearGradient id="paint1_linear_364_13644" x1="3.55814" y1="6.05601" x2="20.438" y2="6.36861" gradientUnits="userSpaceOnUse">
<stop stop-color="#008CC4"/>
<stop offset="1" stop-color="#00A8F8"/>
</linearGradient>
</defs>
</svg>

<svg xmlns="http://www.w3.org/2000/svg" width="24" height="24" fill="none" viewBox="0 0 24 24">
    <path fill="url(#PWR__a)" d="M11.997 21.998a10.005 10.005 0 0 0 9.616-12.76q.075.432.075.882c0 4-3.958 5.001-5.94 5.001H8.246l-.625 3.126H4.183a10 10 0 0 0 7.814 3.751"/>
    <path fill="url(#PWR__b)" d="M3.933 17.916a10.003 10.003 0 1 1 17.255-9.872c-.575-.969-1.732-1.675-3.876-1.675H8.247L5.121 9.494H15.75v-1.25l3.751 2.5-3.75 2.502v-1.25H5.12z"/>
    <defs>
        <linearGradient id="PWR__a" x1="5.157" x2="22.414" y1="18.079" y2="13.242" gradientUnits="userSpaceOnUse">
            <stop stop-color="#4D4D4D"/>
            <stop offset="1" stop-color="#1A1A1A"/>
        </linearGradient>
        <linearGradient id="PWR__b" x1="3.558" x2="20.438" y1="6.056" y2="6.369" gradientUnits="userSpaceOnUse">
            <stop stop-color="#008CC4"/>
            <stop offset="1" stop-color="#00A8F8"/>
        </linearGradient>
    </defs>
</svg>
